icon/pk/five.svg

<svg viewBox="0 0 48 48" fill="none" xmlns="http://www.w3.org/2000/svg" height="1em" width="1em">
  <path d="M11 40L6 25.5L4.04155 15.7078C4.01392 15.5696 4 15.429 4 15.2881V15.1272C4 13.757 5.78238 13.226 6.53225 14.3729C6.5876 14.4575 6.63666 14.5461 6.67904 14.6379L10.6107 23.1566C10.8302 23.6321 11.3794 23.8577 11.8698 23.6738L12 23.625L10.1291 9.94424C10.0464 9.33927 10.2055 8.72606 10.5718 8.23757C11.0844 7.55408 12.0541 7.41556 12.7376 7.92818L12.8707 8.02802C13.2808 8.33563 13.5896 8.75888 13.7573 9.24336L17.869 21.1217C17.9474 21.3481 18.1607 21.5 18.4003 21.5C18.7251 21.5 18.9823 21.2257 18.9614 20.9016L18.0785 7.21729C18.0286 6.44352 18.3143 5.68573 18.8625 5.13746C19.5101 4.4899 20.541 4.43281 21.2561 5.00489L21.5966 5.27727C22.178 5.74239 22.5657 6.40711 22.6842 7.14218L24.9229 21.0222C24.9673 21.2976 25.2051 21.5 25.484 21.5C25.7767 21.5 26.0215 21.2777 26.0497 20.9864L27.3779 7.26175C27.456 6.45511 27.857 5.71437 28.4899 5.20811L28.6963 5.04293C29.4385 4.44919 30.5084 4.50844 31.1805 5.18051C31.7052 5.70522 32 6.41688 32 7.15893V26.6683C32 27.4595 32.8752 27.9373 33.5408 27.5095L38.0118 24.6353C38.657 24.2205 39.4078 24 40.1748 24H42.2433C43.0185 24 43.4989 24.8439 43.1031 25.5105L34.5 40C34.5 40 31 44 23 44C15 44 11.6667 41.3333 11 40Z" fill="#2F88FF" stroke="black" stroke-width="4" stroke-linecap="round" stroke-linejoin="round"/>
</svg>

<svg width="48" height="48" fill="none" xmlns="http://www.w3.org/2000/svg"><path d="M11 40 6 25.5l-1.958-9.792a2.14 2.14 0 0 1-.042-.42v-.16c0-1.371 1.782-1.902 2.532-.755.056.085.105.173.147.265l3.932 8.519a1 1 0 0 0 1.259.517l.13-.049-1.87-13.68a2.32 2.32 0 0 1 .442-1.707 1.547 1.547 0 0 1 2.166-.31l.133.1c.41.308.719.73.886 1.215l4.112 11.879a.562.562 0 0 0 1.092-.22l-.883-13.685a2.696 2.696 0 0 1 .785-2.08 1.797 1.797 0 0 1 2.393-.132l.34.272a3 3 0 0 1 1.088 1.865l2.239 13.88a.568.568 0 0 0 1.127-.036l1.328-13.724a3 3 0 0 1 1.112-2.054l.206-.165a1.865 1.865 0 0 1 2.484.138c.525.524.82 1.236.82 1.978v19.51a1 1 0 0 0 1.54.84l4.472-2.874A4 4 0 0 1 40.175 24h2.068a1 1 0 0 1 .86 1.51L34.5 40S31 44 23 44s-11.333-2.667-12-4Z" fill="#2F88FF" stroke="#000" stroke-width="4" stroke-linecap="round" stroke-linejoin="round"/></svg>
